src/components/Icon/utils/svgsOptimized/arrows-out.svg

<svg width="24" height="24" viewBox="0 0 24 24"  xmlns="http://www.w3.org/2000/svg">
<path d="M19 5.63636V9.45455C19 9.62332 18.933 9.78518 18.8136 9.90452C18.6943 10.0239 18.5324 10.0909 18.3636 10.0909C18.1949 10.0909 18.033 10.0239 17.9137 9.90452C17.7943 9.78518 17.7273 9.62332 17.7273 9.45455V7.17239L14.3593 10.5411C14.2399 10.6605 14.078 10.7276 13.9091 10.7276C13.7402 10.7276 13.5783 10.6605 13.4589 10.5411C13.3395 10.4217 13.2724 10.2598 13.2724 10.0909C13.2724 9.92204 13.3395 9.76009 13.4589 9.64068L16.8276 6.27273H14.5455C14.3767 6.27273 14.2148 6.20568 14.0955 6.08634C13.9761 5.967 13.9091 5.80514 13.9091 5.63636C13.9091 5.46759 13.9761 5.30573 14.0955 5.18639C14.2148 5.06705 14.3767 5 14.5455 5H18.3636C18.5324 5 18.6943 5.06705 18.8136 5.18639C18.933 5.30573 19 5.46759 19 5.63636ZM9.64068 13.4589L6.27273 16.8276V14.5455C6.27273 14.3767 6.20568 14.2148 6.08634 14.0955C5.967 13.9761 5.80514 13.9091 5.63636 13.9091C5.46759 13.9091 5.30573 13.9761 5.18639 14.0955C5.06705 14.2148 5 14.3767 5 14.5455V18.3636C5 18.5324 5.06705 18.6943 5.18639 18.8136C5.30573 18.933 5.46759 19 5.63636 19H9.45455C9.62332 19 9.78518 18.933 9.90452 18.8136C10.0239 18.6943 10.0909 18.5324 10.0909 18.3636C10.0909 18.1949 10.0239 18.033 9.90452 17.9137C9.78518 17.7943 9.62332 17.7273 9.45455 17.7273H7.17239L10.5411 14.3593C10.6605 14.2399 10.7276 14.078 10.7276 13.9091C10.7276 13.7402 10.6605 13.5783 10.5411 13.4589C10.4217 13.3395 10.2598 13.2724 10.0909 13.2724C9.92204 13.2724 9.76009 13.3395 9.64068 13.4589ZM18.3636 13.9091C18.1949 13.9091 18.033 13.9761 17.9137 14.0955C17.7943 14.2148 17.7273 14.3767 17.7273 14.5455V16.8276L14.3593 13.4589C14.2399 13.3395 14.078 13.2724 13.9091 13.2724C13.7402 13.2724 13.5783 13.3395 13.4589 13.4589C13.3395 13.5783 13.2724 13.7402 13.2724 13.9091C13.2724 14.078 13.3395 14.2399 13.4589 14.3593L16.8276 17.7273H14.5455C14.3767 17.7273 14.2148 17.7943 14.0955 17.9137C13.9761 18.033 13.9091 18.1949 13.9091 18.3636C13.9091 18.5324 13.9761 18.6943 14.0955 18.8136C14.2148 18.933 14.3767 19 14.5455 19H18.3636C18.5324 19 18.6943 18.933 18.8136 18.8136C18.933 18.6943 19 18.5324 19 18.3636V14.5455C19 14.3767 18.933 14.2148 18.8136 14.0955C18.6943 13.9761 18.5324 13.9091 18.3636 13.9091ZM7.17239 6.27273H9.45455C9.62332 6.27273 9.78518 6.20568 9.90452 6.08634C10.0239 5.967 10.0909 5.80514 10.0909 5.63636C10.0909 5.46759 10.0239 5.30573 9.90452 5.18639C9.78518 5.06705 9.62332 5 9.45455 5H5.63636C5.46759 5 5.30573 5.06705 5.18639 5.18639C5.06705 5.30573 5 5.46759 5 5.63636V9.45455C5 9.62332 5.06705 9.78518 5.18639 9.90452C5.30573 10.0239 5.46759 10.0909 5.63636 10.0909C5.80514 10.0909 5.967 10.0239 6.08634 9.90452C6.20568 9.78518 6.27273 9.62332 6.27273 9.45455V7.17239L9.64068 10.5411C9.76009 10.6605 9.92204 10.7276 10.0909 10.7276C10.2598 10.7276 10.4217 10.6605 10.5411 10.5411C10.6605 10.4217 10.7276 10.2598 10.7276 10.0909C10.7276 9.92204 10.6605 9.76009 10.5411 9.64068L7.17239 6.27273Z" />
</svg>

<?xml version="1.0" encoding="utf-8"?><svg width="24" height="24" xmlns="http://www.w3.org/2000/svg" viewBox="0 0 24 24"><path d="M19 5.636v3.819a.636.636 0 1 1-1.273 0V7.172l-3.368 3.37a.637.637 0 1 1-.9-.901l3.369-3.368h-2.282a.636.636 0 1 1 0-1.273h3.818a.636.636 0 0 1 .636.636ZM9.64 13.46l-3.367 3.369v-2.282a.636.636 0 1 0-1.273 0v3.818a.636.636 0 0 0 .636.636h3.819a.636.636 0 1 0 0-1.273H7.172l3.37-3.368a.637.637 0 1 0-.901-.9Zm8.724.45a.636.636 0 0 0-.637.636v2.283l-3.368-3.37a.637.637 0 1 0-.9.901l3.369 3.368h-2.282a.636.636 0 1 0 0 1.273h3.818a.636.636 0 0 0 .636-.636v-3.819a.636.636 0 0 0-.636-.636ZM7.172 6.273h2.283a.636.636 0 0 0 0-1.273H5.636A.636.636 0 0 0 5 5.636v3.819a.636.636 0 0 0 1.273 0V7.172l3.368 3.37a.637.637 0 0 0 .9-.901L7.172 6.273Z"/></svg>
